!!!SOCIAL_FUNCTION:	songs used in the treatment of the sick
!!!PDT:	1929
!!!OTL: No_80_Song_of_a_Spirit.krn
!!!REG: Southwest
!!!LANG: Non-Tone
!!!LING_GROUP: Uto-Aztecan
**kern
*staff1
=1-
*clefF4
*k[f#c#g#d#a#]
*M2/4
4F#\
8.c#\L
16c#\Jk
=2
4.c#\
8B\
=3||
*M3/4
8.c#\L
16c#\Jk
8.c#\L
16B\Jk
8B\L
16F#\L
16F#\JJ
=4||
*M2/4
2B;\
=5
4B\
12c#\L
12B\
12B\J
=6
4.B\
8G#\
=7
=
*M3/4
8.B\L
16G#\Jk
8.F#\L
16G#\Jk
8F#/L
16C#/L
16C#/JJ
=8||
*M2/4
2F#;\
=9
8.B\L
16B\Jk
12B\L
24G#\L
24G#\J
12F#\J
=10||
*M3/4
12G#\L
12F#\
12F#\J
8.F#\L
16F#\Jk
4F#\
=11||
*M2/4
12G#\L
12F#\
12F#\J
8.F#\L
16F#\Jk
=12
4F#\
4F#\
=13
8.F#\L
16F#\Jk
12F#\L
12F#\
12F#\J
=14
8.F#\L
16D#\Jk
8.C#/L
16F#/Jk
=15
4F#\
4C#;/
=16||
*M3/4
12F#\L
12F#\
12F#\J
12F#\L
12F#\
12F#\J
8.F#\L
16F#\Jk
=17
2F#\
12G#\L
12F#\
12F#\J
=18
8.B\L
16B\Jk
4.B\
8G#\
==:|!
*-
